X:1
T: Hielan' Tonal'
C:
R:Strathspey
Q: 128
K:Dm
M:4/4
L:1/16
|:A3G F3E D4 d4|cA3 A3d cA3 A3d|A3G F3E D4d4|f3d ((3e2d2^c2) d6A2|
A3G F3E D4d4|cA3 A3d cA3 A3d|A3G F3E D4d4|f3d ((3e2d2^c2) d6A2|
d3e f3e dA3 A3B|ce3 e3d ce3 e3f|d3e f3e d4 A3B|A3d ((3e2d2^c2) d6F2|
d3e f3e dA3 A3B|ce3 e3d ce3 e3f|d3e f3e d4 A3B|A3d ((3e2d2^c2) d8:|
